packages/foundations/assets/icons/functional/images/medical/medical_cross_14.svg

<svg width="14" height="14" viewBox="0 0 14 14" fill="none" xmlns="http://www.w3.org/2000/svg">
<g clip-path="url(#clip0_186_234)">
<path fill-rule="evenodd" clip-rule="evenodd" d="M8.39998 2.10001C8.78657 2.10001 9.09998 2.41341 9.09998 2.80001V4.90001H11.2C11.5866 4.90001 11.9 5.21341 11.9 5.60001V8.40001C11.9 8.78661 11.5866 9.10001 11.2 9.10001H9.09998V11.2C9.09998 11.5866 8.78657 11.9 8.39998 11.9H5.59998C5.21338 11.9 4.89998 11.5866 4.89998 11.2V9.10001H2.79998C2.41338 9.10001 2.09998 8.78661 2.09998 8.40001V5.60001C2.09998 5.21341 2.41338 4.90001 2.79998 4.90001H4.89998V2.80001C4.89998 2.41341 5.21338 2.10001 5.59998 2.10001H8.39998ZM7.69998 3.50001H6.29998V6.30001H3.49998V7.70001H6.29998V10.5H7.69998V7.70001H10.5V6.30001H7.69998V3.50001Z" fill="#1A1C1F"/>
</g>
<defs>
<clipPath id="clip0_186_234">
<rect width="14" height="14" fill="white"/>
</clipPath>
</defs>
</svg>

<svg xmlns="http://www.w3.org/2000/svg" width="14" height="14" fill="none"><g clip-path="url(#a)"><path fill="#1A1C1F" fill-rule="evenodd" d="M8.4 2.1a.7.7 0 0 1 .7.7v2.1h2.1a.7.7 0 0 1 .7.7v2.8a.7.7 0 0 1-.7.7H9.1v2.1a.7.7 0 0 1-.7.7H5.6a.7.7 0 0 1-.7-.7V9.1H2.8a.7.7 0 0 1-.7-.7V5.6a.7.7 0 0 1 .7-.7h2.1V2.8a.7.7 0 0 1 .7-.7zm-.7 1.4H6.3v2.8H3.5v1.4h2.8v2.8h1.4V7.7h2.8V6.3H7.7z" clip-rule="evenodd"/></g><defs><clipPath id="a"><path fill="#fff" d="M0 0h14v14H0z"/></clipPath></defs></svg>
